packages/synapse-interface/assets/icons/usdt.svg

<svg fill="none" height="48" viewBox="0 0 48 48" width="48" xmlns="http://www.w3.org/2000/svg"><g clip-rule="evenodd" fill-rule="evenodd"><path d="m8.78886 6.20508-8.7520848 18.38372c-.03330416.0684-.04385805.1457-.03011823.2205.01373983.0748.05105253.1432.10648203.1953l23.637261 22.6502c.0672.0644.1566.1003.2496.1003s.1825-.0359.2496-.1003l23.6373-22.6488c.0554-.0521.0927-.1205.1065-.1953.0137-.0748.0031-.1521-.0302-.2204l-8.752-18.38381c-.0283-.06174-.0737-.11404-.1309-.15065-.0572-.03662-.1237-.05599-.1916-.05581h-29.77459c-.06822-.00085-.13523.01806-.19294.05444s-.10366.08869-.13231.15061z" fill="#50af95"/><path d="m27.0368 26.4767c-.1697.0127-1.0464.0651-3.0022.0651-1.5555 0-2.66-.0467-3.0474-.0651-6.0115-.2644-10.4986-1.3109-10.4986-2.5638 0-1.253 4.4871-2.298 10.4986-2.5667v4.0883c.3931.0283 1.5188.0947 3.0743.0947 1.8667 0 2.8014-.0777 2.9697-.0933v-4.0869c5.9987.2673 10.4759 1.3138 10.4759 2.5639s-4.4757 2.2965-10.4759 2.5624zm0-5.5505v-3.6583h8.3717v-5.5788h-22.793v5.5788h8.3703v3.6569c-6.8034.3125-11.91979 1.6602-11.91979 3.2751 0 1.615 5.11639 2.9612 11.91979 3.2752v11.7232h6.0496v-11.7275c6.7879-.3125 11.8957-1.6587 11.8957-3.2723 0-1.6135-5.1036-2.9598-11.8957-3.2737z" fill="#fff"/></g></svg>

<svg width="48" height="48" viewBox="0 0 48 48" fill="none" xmlns="http://www.w3.org/2000/svg">
<path fill-rule="evenodd" clip-rule="evenodd" d="M8.78886 6.20508L0.0367752 24.5888C0.00347104 24.6572 -0.00708285 24.7345 0.00665697 24.8093C0.0203968 24.8841 0.0577095 24.9525 0.113139 25.0046L23.7504 47.6548C23.8176 47.7192 23.907 47.7551 24 47.7551C24.093 47.7551 24.1825 47.7192 24.2496 47.6548L47.8869 25.006C47.9423 24.9539 47.9796 24.8855 47.9934 24.8107C48.0071 24.7359 47.9965 24.6586 47.9632 24.5903L39.2112 6.20649C39.1829 6.14475 39.1375 6.09245 39.0803 6.05584C39.0231 6.01922 38.9566 5.99985 38.8887 6.00003H9.11411C9.04589 5.99918 8.97888 6.01809 8.92117 6.05447C8.86346 6.09085 8.81751 6.14316 8.78886 6.20508V6.20508Z" fill="#50AF95"/>
<path fill-rule="evenodd" clip-rule="evenodd" d="M27.0368 26.4767C26.8671 26.4894 25.9904 26.5418 24.0346 26.5418C22.4791 26.5418 21.3746 26.4951 20.9872 26.4767C14.9757 26.2123 10.4886 25.1658 10.4886 23.9129C10.4886 22.6599 14.9757 21.6149 20.9872 21.3462V25.4345C21.3803 25.4628 22.506 25.5292 24.0615 25.5292C25.9282 25.5292 26.8629 25.4515 27.0312 25.4359V21.349C33.0299 21.6163 37.5071 22.6628 37.5071 23.9129C37.5071 25.163 33.0314 26.2094 27.0312 26.4753L27.0368 26.4767ZM27.0368 20.9262V17.2679H35.4085V11.6891H12.6155V17.2679H20.9858V20.9248C14.1824 21.2373 9.06601 22.585 9.06601 24.1999C9.06601 25.8149 14.1824 27.1611 20.9858 27.4751V39.1983H27.0354V27.4708C33.8233 27.1583 38.9311 25.8121 38.9311 24.1985C38.9311 22.585 33.8275 21.2387 27.0354 20.9248L27.0368 20.9262Z" fill="white"/>
</svg>
